!!!OTL: Braut - Werbung (Hildesage) Bie vrie ischt auf der Eltmaschuhn!
!!!ARE: Europa, Suedosteuropa, Jugoslavija, Gottschee, Innlauf
!!!YOR: 1, S. 28
!!    1905 aufgezeichnet
!!!SCT: Q0003A
!!!YEM: Copyright 1995, estate of Helmut Schaffrath.
**kern
*ICvox
*Ivox
*M2/4
*k[b-e-]
*B-:
{4f
=1
8b-
8b-
8a
8b-
=2
8cc
8cc
8b-}
{8dd
=3
8cc
8b-
8a
8g
=4
8a
8g
4f}
=5
{4f
8f
8a
=6
4b-
4r
=7
8cc
8dd
8cc
8a
=8
4b-}
==
!!!AGN: Ballade, Braut - Werbung
!! Letzte Zeile = Refrain auf sinnfreie Silben.
!!!ONB: ESAC (Essen Associative Code) Database: BALLADE
!!!AMT: simple duple
!!!AIN: vox
!!!EED: Helmut Schaffrath
!!!EEV: 1.0
*-
